svgs/sharp-regular/code-commit.svg

<svg xmlns="http://www.w3.org/2000/svg" viewBox="0 0 640 512"><!--! Font Awesome Pro 6.6.0 by @fontawesome - https://fontawesome.com License - https://fontawesome.com/license (Commercial License) Copyright 2024 Fonticons, Inc. --><path d="M224 160l0 192 192 0 0-192-192 0zm-48-48l48 0 192 0 48 0 0 48 0 72 152 0 24 0 0 48-24 0-152 0 0 72 0 48-48 0-192 0-48 0 0-48 0-72L24 280 0 280l0-48 24 0 152 0 0-72 0-48z"/></svg>

<svg xmlns="http://www.w3.org/2000/svg" viewBox="0 0 640 512"><!--! Font Awesome Pro 6.4.0 by @fontawesome - https://fontawesome.com License - https://fontawesome.com/license (Commercial License) Copyright 2023 Fonticons, Inc. --><path d="M224 160V352H416V160H224zm-48-48h48H416h48v48 72H616h24v48H616 464v72 48H416 224 176V352 280H24 0V232H24 176V160 112z"/></svg>
